Pods/ProtonCore-UIFoundations/libraries/UIFoundations/Sources/Assets.xcassets/Images/IconSet/ic-grid-2.imageset/ic-grid-2.svg

<svg width="24" height="24" viewBox="0 0 24 24" fill="none" xmlns="http://www.w3.org/2000/svg">
<path fill-rule="evenodd" clip-rule="evenodd" d="M6.45 3H6.3C5.43517 3 4.87676 3.00117 4.45175 3.03589C4.04426 3.06918 3.89318 3.1257 3.81901 3.16349C3.53677 3.3073 3.3073 3.53677 3.16349 3.81901C3.1257 3.89318 3.06918 4.04426 3.03589 4.45175C3.00117 4.87676 3 5.43517 3 6.3V6.45C3 7.31483 3.00117 7.87324 3.03589 8.29825C3.06918 8.70574 3.1257 8.85682 3.16349 8.93099C3.3073 9.21323 3.53677 9.4427 3.81901 9.58651C3.89318 9.6243 4.04426 9.68082 4.45175 9.71411C4.87676 9.74883 5.43517 9.75 6.3 9.75H6.45C7.31483 9.75 7.87324 9.74883 8.29825 9.71411C8.70574 9.68082 8.85682 9.6243 8.93099 9.58651C9.21323 9.4427 9.4427 9.21323 9.58651 8.93099C9.6243 8.85682 9.68082 8.70574 9.71411 8.29825C9.74883 7.87324 9.75 7.31483 9.75 6.45V6.3C9.75 5.43517 9.74883 4.87676 9.71411 4.45175C9.68082 4.04426 9.6243 3.89318 9.58651 3.81901C9.4427 3.53677 9.21323 3.3073 8.93099 3.16349C8.85682 3.1257 8.70574 3.06918 8.29825 3.03589C7.87324 3.00117 7.31483 3 6.45 3ZM1.82698 3.13803C1.5 3.77976 1.5 4.61984 1.5 6.3V6.45C1.5 8.13016 1.5 8.97024 1.82698 9.61197C2.1146 10.1765 2.57354 10.6354 3.13803 10.923C3.77976 11.25 4.61984 11.25 6.3 11.25H6.45C8.13016 11.25 8.97024 11.25 9.61197 10.923C10.1765 10.6354 10.6354 10.1765 10.923 9.61197C11.25 8.97024 11.25 8.13016 11.25 6.45V6.3C11.25 4.61984 11.25 3.77976 10.923 3.13803C10.6354 2.57354 10.1765 2.1146 9.61197 1.82698C8.97024 1.5 8.13016 1.5 6.45 1.5H6.3C4.61984 1.5 3.77976 1.5 3.13803 1.82698C2.57354 2.1146 2.1146 2.57354 1.82698 3.13803ZM17.55 3H17.7C18.5648 3 19.1232 3.00117 19.5482 3.03589C19.9557 3.06918 20.1068 3.1257 20.181 3.16349C20.4632 3.3073 20.6927 3.53677 20.8365 3.81901C20.8743 3.89318 20.9308 4.04426 20.9641 4.45175C20.9988 4.87676 21 5.43517 21 6.3V6.45C21 7.31483 20.9988 7.87324 20.9641 8.29825C20.9308 8.70574 20.8743 8.85682 20.8365 8.93099C20.6927 9.21323 20.4632 9.4427 20.181 9.58651C20.1068 9.6243 19.9557 9.68082 19.5482 9.71411C19.1232 9.74883 18.5648 9.75 17.7 9.75H17.55C16.6852 9.75 16.1268 9.74883 15.7018 9.71411C15.2943 9.68082 15.1432 9.6243 15.069 9.58651C14.7868 9.4427 14.5573 9.21323 14.4135 8.93099C14.3757 8.85682 14.3192 8.70574 14.2859 8.29825C14.2512 7.87324 14.25 7.31483 14.25 6.45V6.3C14.25 5.43517 14.2512 4.87676 14.2859 4.45175C14.3192 4.04426 14.3757 3.89318 14.4135 3.81901C14.5573 3.53677 14.7868 3.3073 15.069 3.16349C15.1432 3.1257 15.2943 3.06918 15.7018 3.03589C16.1268 3.00117 16.6852 3 17.55 3ZM12.75 6.3C12.75 4.61984 12.75 3.77976 13.077 3.13803C13.3646 2.57354 13.8235 2.1146 14.388 1.82698C15.0298 1.5 15.8698 1.5 17.55 1.5H17.7C19.3802 1.5 20.2202 1.5 20.862 1.82698C21.4265 2.1146 21.8854 2.57354 22.173 3.13803C22.5 3.77976 22.5 4.61984 22.5 6.3V6.45C22.5 8.13016 22.5 8.97024 22.173 9.61197C21.8854 10.1765 21.4265 10.6354 20.862 10.923C20.2202 11.25 19.3802 11.25 17.7 11.25H17.55C15.8698 11.25 15.0298 11.25 14.388 10.923C13.8235 10.6354 13.3646 10.1765 13.077 9.61197C12.75 8.97024 12.75 8.13016 12.75 6.45V6.3ZM17.55 14.25H17.7C18.5648 14.25 19.1232 14.2512 19.5482 14.2859C19.9557 14.3192 20.1068 14.3757 20.181 14.4135C20.4632 14.5573 20.6927 14.7868 20.8365 15.069C20.8743 15.1432 20.9308 15.2943 20.9641 15.7018C20.9988 16.1268 21 16.6852 21 17.55V17.7C21 18.5648 20.9988 19.1232 20.9641 19.5482C20.9308 19.9557 20.8743 20.1068 20.8365 20.181C20.6927 20.4632 20.4632 20.6927 20.181 20.8365C20.1068 20.8743 19.9557 20.9308 19.5482 20.9641C19.1232 20.9988 18.5648 21 17.7 21H17.55C16.6852 21 16.1268 20.9988 15.7018 20.9641C15.2943 20.9308 15.1432 20.8743 15.069 20.8365C14.7868 20.6927 14.5573 20.4632 14.4135 20.181C14.3757 20.1068 14.3192 19.9557 14.2859 19.5482C14.2512 19.1232 14.25 18.5648 14.25 17.7V17.55C14.25 16.6852 14.2512 16.1268 14.2859 15.7018C14.3192 15.2943 14.3757 15.1432 14.4135 15.069C14.5573 14.7868 14.7868 14.5573 15.069 14.4135C15.1432 14.3757 15.2943 14.3192 15.7018 14.2859C16.1268 14.2512 16.6852 14.25 17.55 14.25ZM12.75 17.55C12.75 15.8698 12.75 15.0298 13.077 14.388C13.3646 13.8235 13.8235 13.3646 14.388 13.077C15.0298 12.75 15.8698 12.75 17.55 12.75H17.7C19.3802 12.75 20.2202 12.75 20.862 13.077C21.4265 13.3646 21.8854 13.8235 22.173 14.388C22.5 15.0298 22.5 15.8698 22.5 17.55V17.7C22.5 19.3802 22.5 20.2202 22.173 20.862C21.8854 21.4265 21.4265 21.8854 20.862 22.173C20.2202 22.5 19.3802 22.5 17.7 22.5H17.55C15.8698 22.5 15.0298 22.5 14.388 22.173C13.8235 21.8854 13.3646 21.4265 13.077 20.862C12.75 20.2202 12.75 19.3802 12.75 17.7V17.55ZM6.3 14.25H6.45C7.31483 14.25 7.87324 14.2512 8.29825 14.2859C8.70574 14.3192 8.85682 14.3757 8.93099 14.4135C9.21323 14.5573 9.4427 14.7868 9.58651 15.069C9.6243 15.1432 9.68082 15.2943 9.71411 15.7018C9.74883 16.1268 9.75 16.6852 9.75 17.55V17.7C9.75 18.5648 9.74883 19.1232 9.71411 19.5482C9.68082 19.9557 9.6243 20.1068 9.58651 20.181C9.4427 20.4632 9.21323 20.6927 8.93099 20.8365C8.85682 20.8743 8.70574 20.9308 8.29825 20.9641C7.87324 20.9988 7.31483 21 6.45 21H6.3C5.43517 21 4.87676 20.9988 4.45175 20.9641C4.04426 20.9308 3.89318 20.8743 3.81901 20.8365C3.53677 20.6927 3.3073 20.4632 3.16349 20.181C3.1257 20.1068 3.06918 19.9557 3.03589 19.5482C3.00117 19.1232 3 18.5648 3 17.7V17.55C3 16.6852 3.00117 16.1268 3.03589 15.7018C3.06918 15.2943 3.1257 15.1432 3.16349 15.069C3.3073 14.7868 3.53677 14.5573 3.81901 14.4135C3.89318 14.3757 4.04426 14.3192 4.45175 14.2859C4.87676 14.2512 5.43517 14.25 6.3 14.25ZM1.5 17.55C1.5 15.8698 1.5 15.0298 1.82698 14.388C2.1146 13.8235 2.57354 13.3646 3.13803 13.077C3.77976 12.75 4.61984 12.75 6.3 12.75H6.45C8.13016 12.75 8.97024 12.75 9.61197 13.077C10.1765 13.3646 10.6354 13.8235 10.923 14.388C11.25 15.0298 11.25 15.8698 11.25 17.55V17.7C11.25 19.3802 11.25 20.2202 10.923 20.862C10.6354 21.4265 10.1765 21.8854 9.61197 22.173C8.97024 22.5 8.13016 22.5 6.45 22.5H6.3C4.61984 22.5 3.77976 22.5 3.13803 22.173C2.57354 21.8854 2.1146 21.4265 1.82698 20.862C1.5 20.2202 1.5 19.3802 1.5 17.7V17.55Z" fill="#0C0C14"/>
</svg>

<svg xmlns="http://www.w3.org/2000/svg" width="24" height="24" viewBox="0 0 24 24">
  <g class="ic-grid-2">
    <path fill-rule="evenodd" d="M6.45 3H6.3c-.865 0-1.423.001-1.848.036-.408.033-.559.09-.633.127a1.5 1.5 0 0 0-.656.656c-.037.074-.094.225-.127.633C3 4.877 3 5.435 3 6.3v.15c0 .865.001 1.423.036 1.848.033.408.09.559.127.633a1.5 1.5 0 0 0 .656.656c.074.037.225.094.633.127.425.035.983.036 1.848.036h.15c.865 0 1.423-.001 1.848-.036.408-.033.559-.09.633-.127a1.5 1.5 0 0 0 .656-.656c.037-.074.094-.225.127-.633.035-.425.036-.983.036-1.848V6.3c0-.865-.001-1.423-.036-1.848-.033-.408-.09-.559-.127-.633a1.5 1.5 0 0 0-.656-.656c-.074-.037-.225-.094-.633-.127C7.873 3 7.315 3 6.45 3Zm-4.623.138C1.5 3.78 1.5 4.62 1.5 6.3v.15c0 1.68 0 2.52.327 3.162a3 3 0 0 0 1.311 1.311c.642.327 1.482.327 3.162.327h.15c1.68 0 2.52 0 3.162-.327a3 3 0 0 0 1.311-1.311c.327-.642.327-1.482.327-3.162V6.3c0-1.68 0-2.52-.327-3.162a3 3 0 0 0-1.311-1.311C8.97 1.5 8.13 1.5 6.45 1.5H6.3c-1.68 0-2.52 0-3.162.327a3 3 0 0 0-1.311 1.311ZM17.55 3h.15c.865 0 1.423.001 1.848.036.408.033.559.09.633.127a1.5 1.5 0 0 1 .655.656c.038.074.095.225.128.633C21 4.877 21 5.435 21 6.3v.15c0 .865-.001 1.423-.036 1.848-.033.408-.09.559-.127.633a1.5 1.5 0 0 1-.656.656c-.074.037-.225.094-.633.127-.425.035-.983.036-1.848.036h-.15c-.865 0-1.423-.001-1.848-.036-.408-.033-.559-.09-.633-.127a1.5 1.5 0 0 1-.655-.656c-.038-.074-.095-.225-.128-.633-.035-.425-.036-.983-.036-1.848V6.3c0-.865.001-1.423.036-1.848.033-.408.09-.559.128-.633a1.5 1.5 0 0 1 .655-.656c.074-.037.225-.094.633-.127C16.127 3 16.685 3 17.55 3Zm-4.8 3.3c0-1.68 0-2.52.327-3.162a3 3 0 0 1 1.311-1.311C15.03 1.5 15.87 1.5 17.55 1.5h.15c1.68 0 2.52 0 3.162.327a3 3 0 0 1 1.311 1.311c.327.642.327 1.482.327 3.162v.15c0 1.68 0 2.52-.327 3.162a3 3 0 0 1-1.311 1.311c-.642.327-1.482.327-3.162.327h-.15c-1.68 0-2.52 0-3.162-.327a3 3 0 0 1-1.311-1.311c-.327-.642-.327-1.482-.327-3.162V6.3Zm4.8 7.95h.15c.865 0 1.423.001 1.848.036.408.033.559.09.633.128a1.5 1.5 0 0 1 .655.655c.038.074.095.225.128.633.035.425.036.983.036 1.848v.15c0 .865-.001 1.423-.036 1.848-.033.408-.09.559-.127.633a1.5 1.5 0 0 1-.656.655c-.074.038-.225.095-.633.128-.425.035-.983.036-1.848.036h-.15c-.865 0-1.423-.001-1.848-.036-.408-.033-.559-.09-.633-.127a1.5 1.5 0 0 1-.655-.656c-.038-.074-.095-.225-.128-.633-.035-.425-.036-.983-.036-1.848v-.15c0-.865.001-1.423.036-1.848.033-.408.09-.559.128-.633a1.5 1.5 0 0 1 .655-.655c.074-.038.225-.095.633-.128.425-.035.983-.036 1.848-.036Zm-4.8 3.3c0-1.68 0-2.52.327-3.162a3 3 0 0 1 1.311-1.311c.642-.327 1.482-.327 3.162-.327h.15c1.68 0 2.52 0 3.162.327a3 3 0 0 1 1.311 1.311c.327.642.327 1.482.327 3.162v.15c0 1.68 0 2.52-.327 3.162a3 3 0 0 1-1.311 1.311c-.642.327-1.482.327-3.162.327h-.15c-1.68 0-2.52 0-3.162-.327a3 3 0 0 1-1.311-1.311c-.327-.642-.327-1.482-.327-3.162v-.15Zm-6.45-3.3h.15c.865 0 1.423.001 1.848.036.408.033.559.09.633.128a1.5 1.5 0 0 1 .656.655c.037.074.094.225.127.633.035.425.036.983.036 1.848v.15c0 .865-.001 1.423-.036 1.848-.033.408-.09.559-.127.633a1.5 1.5 0 0 1-.656.655c-.074.038-.225.095-.633.128C7.873 21 7.315 21 6.45 21H6.3c-.865 0-1.423-.001-1.848-.036-.408-.033-.559-.09-.633-.127a1.5 1.5 0 0 1-.656-.656c-.037-.074-.094-.225-.127-.633C3 19.123 3 18.565 3 17.7v-.15c0-.865.001-1.423.036-1.848.033-.408.09-.559.127-.633a1.5 1.5 0 0 1 .656-.655c.074-.038.225-.095.633-.128.425-.035.983-.036 1.848-.036Zm-4.8 3.3c0-1.68 0-2.52.327-3.162a3 3 0 0 1 1.311-1.311c.642-.327 1.482-.327 3.162-.327h.15c1.68 0 2.52 0 3.162.327a3 3 0 0 1 1.311 1.311c.327.642.327 1.482.327 3.162v.15c0 1.68 0 2.52-.327 3.162a3 3 0 0 1-1.311 1.311c-.642.327-1.482.327-3.162.327H6.3c-1.68 0-2.52 0-3.162-.327a3 3 0 0 1-1.311-1.311C1.5 20.22 1.5 19.38 1.5 17.7v-.15Z" class="Icon"/>
  </g>
</svg>
